lib/brands/icons/apple-carplay.svg

<svg xmlns="http://www.w3.org/2000/svg" fill="none" aria-hidden="true" viewBox="0 0 48 48"><g id="apple-carplay-Icon"><g id="Group"><path id="Vector" fill="url(#paint0_linear_94_17045)" d="M42 33.9857C42 38.4121 38.4121 42 33.986 42H14.014C9.58789 42 6 38.4121 6 33.9857V14.014C6 9.58789 9.58789 6 14.014 6H33.986C38.4121 6 42 9.58789 42 14.014V33.9857Z"/><path id="Vector_2" fill="white" d="M24.0239 35.1175C17.9067 35.1175 12.9302 30.141 12.9302 24.0238C12.9302 17.9066 17.9067 12.9301 24.0239 12.9301C27.5646 12.9301 30.9217 14.6425 33.0054 17.5108C33.097 17.644 33.133 17.8077 33.1057 17.9671C33.0784 18.1264 32.9898 18.2688 32.859 18.3638C32.7282 18.4588 32.5655 18.4989 32.4055 18.4756C32.2455 18.4523 32.1009 18.3675 32.0026 18.2391C30.1518 15.6907 27.1691 14.1691 24.0239 14.1691C18.5901 14.1691 14.1694 18.5897 14.1694 24.0236C14.1694 29.4571 18.5901 33.878 24.0239 33.878C27.1626 33.878 30.1416 32.3619 31.9935 29.8217C32.092 29.6937 32.2366 29.6093 32.3965 29.5864C32.5564 29.5635 32.7189 29.604 32.8494 29.6991C32.9798 29.7942 33.068 29.9366 33.0951 30.0958C33.1223 30.255 33.0861 30.4185 32.9945 30.5514C30.9108 33.4108 27.5572 35.1175 24.0239 35.1175ZM22.0047 19.2754C21.9095 19.2051 21.8003 19.1431 21.7107 19.1431C21.6015 19.1432 21.4969 19.1866 21.4197 19.2638C21.3425 19.3409 21.2991 19.4456 21.299 19.5548V28.3442C21.2992 28.4175 21.319 28.4894 21.3562 28.5526C21.3935 28.6157 21.4469 28.6677 21.511 28.7033C21.5751 28.7389 21.6475 28.7567 21.7207 28.755C21.794 28.7532 21.8655 28.7319 21.9278 28.6934C22.005 28.6447 29.4505 24.3988 29.5227 24.3357C29.6096 24.2603 29.6644 24.1491 29.6644 24.0251C29.6644 23.9184 29.624 23.8213 29.5575 23.7481C29.482 23.6655 22.1291 19.3669 22.0047 19.2754Z"/></g></g><defs><linearGradient id="paint0_linear_94_17045" x1="24" x2="24" y1="6" y2="42" gradientUnits="userSpaceOnUse"><stop stop-color="#0BD319"/><stop offset="0.22" stop-color="#18D722"/><stop offset="1" stop-color="#86FC6F"/></linearGradient></defs></svg>

<svg xmlns="http://www.w3.org/2000/svg" fill="none" aria-hidden="true" viewBox="0 0 48 48"><path fill="url(#a)" d="M42 33.986A8.014 8.014 0 0 1 33.986 42H14.014A8.014 8.014 0 0 1 6 33.986V14.014A8.014 8.014 0 0 1 14.014 6h19.972A8.014 8.014 0 0 1 42 14.014v19.972Z"/><path fill="#fff" d="M24.024 35.117c-6.117 0-11.094-4.976-11.094-11.093S17.907 12.93 24.024 12.93c3.54 0 6.898 1.713 8.981 4.58a.62.62 0 0 1-1.002.73 9.892 9.892 0 0 0-7.98-4.07c-5.433 0-9.854 4.42-9.854 9.854 0 5.433 4.421 9.854 9.855 9.854a9.895 9.895 0 0 0 7.97-4.056.62.62 0 0 1 1 .73 11.136 11.136 0 0 1-8.97 4.566Zm-2.02-15.842c-.095-.07-.204-.132-.293-.132a.412.412 0 0 0-.412.412v8.79a.413.413 0 0 0 .629.348c.077-.048 7.523-4.294 7.595-4.357a.41.41 0 0 0 .035-.588c-.076-.082-7.429-4.381-7.553-4.473Z"/><defs><linearGradient id="a" x1="24" x2="24" y1="6" y2="42" gradientUnits="userSpaceOnUse"><stop stop-color="#0BD319"/><stop offset=".22" stop-color="#18D722"/><stop offset="1" stop-color="#86FC6F"/></linearGradient></defs></svg>
